X:556
T:
S:Ur en gammal »dansbok» från Hogrän.
R:vals
O:Gotland, Hogrän
M:3/4
L:1/8
K:C
g2|(c'g)(eg)(fa)|(ge)(ce)(ge)|(fd)(Bd)(fd)|g2 (ed) c2|
(c'g)(eg)(fa)|(ge)(ce)(ge)|(fd)(Bd)(fd)|c4::G2|
(dc)(de)(fd)|e2 c2 c2|g2 (ga)(ba)|a2 (g^f) g2|
c'2 (c'b)(ag)|a2 (ag)(fe)|(ec)(de)(fd)|(cd)(ef) g2|
c'2 (c'b)(ag)|a2 (ag)(fe)|(ec)(de)(fd)|c4:|

